X:1
T:Title
%%score { ( 1 3 ) | 2 }
L:1/8
M:4/4
K:Bb
V:1 treble nm="Grand Piano"
V:3 treble 
V:2 bass 
V:1
 z4 z2[Q:1/4=96] F>G | [DF]2- [F,D-F-]2 [B,DF]2 F>G | [EF]2- [F,E-F-]2 [A,EF]2 F>G | A2 e2 d2 c2 | %4
 [DB]6 F>G | [DF]2- [F,D-F-]2 [B,DF]2 F>G | [EF]2- [F,E-F-]2 [A,EF]2 F>G | A2 G2 A2 B2 | %8
 c6 [DB]>[Ec] | [Fd]2 [Fd]>[=E_d] [F=d]2 [DF]>[DB] | [Fd]>[Fd] [Fd]>[=E_d] [F=d]2 [Fd]>[Gd] | %11
 [Ge]2 [Gd]>[Gd] [Ge]2 [Gd]>[Gc] |[M:7/8] B>BA>A [DB]3 |[M:1/4] F>F |[M:4/4] F6 z2 | F4 z4 | %16
 G2 G2 [FG]2 [FG]2 | [EG]6 [=EG]>[EG] | A2 A>A [^FA]2 [FA]>[FA] | B>B B>B B2 B>B | c2 c>c c2 c>c | %21
[M:9/8] d>[Fd][Fd]- [Fd]/d/ d2- dd>d |[M:4/4] [Ge]4 [Gd]2 [Gd]2 | [Ge]4 [Gd]2 [Gc]2 | B3 B A2 A2 | %25
[M:3/4] [DB]6 |] %26
V:2
 z4 z2 D>E | B,,2 B,,2 B,,2 D>E | C,2 C,2 C,2 [F,A,]>[F,B,F] | [F,CE]2 [F,A,G]2 [F,B,F]2 [F,E]2 | %4
 [B,,F,]6 D>E | B,,2 B,,2 B,,2 D>E | C,2 C,2 C,2 [F,A,]>[F,B,F] | %7
 [F,CF]2 [B,C=E]2 [A,CE]2 [G,CE]2 | [F,A,E]6 [B,,B,]>[B,,B,] | %9
 [B,,B,]2 [B,,B,]>[B,,B,] [B,,B,]2 [B,,B,]>[B,,B,] | %10
 [B,,B,]>[B,,B,] [B,,B,]>[B,,B,] [B,,B,]2 [G,=B,]>[G,B,] | %11
 [C,C]2 [G,=B,]>[G,B,] [C,C]2 [D,B,]>[E,C] |[M:7/8] [F,DF]>[F,DF][F,CE]>[F,CE] [B,,B,]3 | %13
[M:1/4] z2 |[M:4/4] z2 [B,,B,]>[=B,,_A,] [C,=A,]2 z2 | z2 [C,A,]>[_D,A,] [=D,B,]2 [D,B,]>[D,B,] | %16
 [E,B,E]2 [E,B,E]2 [D,=B,]2 [D,B,]2 | [C,C]6 [C,C]>[C,C] | %18
 [F,CF]2 [F,CF]>[F,CF] [D,D]2 [D,D]>[D,D] | [G,DG]>[G,DG] [G,DG]>[G,DG] [G,DG]2 [G,DG]>[G,B,D] | %20
 [F,A,F]2 [F,A,F]>[F,A,F] [F,A,F]2 [F,A,F]>[F,A,F] | %21
[M:9/8] [B,F]>[K:bass][B,,B,][D,B,]- [D,B,]/[K:treble][F,B,F]/ [B,F]2- [B,F][G,=B,F]>[G,B,G] | %22
[M:4/4][K:bass] [C,C]4 [G,B,]2 [G,B,]2 | [C,C]4 [D,=B,]2 [E,C]2 | [F,DF]3 [F,DF] [F,CF]2 [F,CE]2 | %25
[M:3/4] [B,,F,B,]6 |] %26
V:3
 x8 | B,2 z2 z4 | A,2 z2 z4 | x8 | x8 | B,2 z2 z4 | A,2 z2 z4 | x8 | x8 | x8 | x8 | x8 | %12
[M:7/8] x7 |[M:1/4] x2 |[M:4/4] z2 D>D E2 F>F | z2 E>=E F2 F>F | x8 | x8 | x8 | x8 | x8 | %21
[M:9/8] x9 |[M:4/4] x8 | x8 | x8 |[M:3/4] x6 |] %26

